resources/haticons/SVG/bug.svg

<!-- Generated by IcoMoon.io -->
<svg version="1.1" xmlns="http://www.w3.org/2000/svg" width="24" height="24" viewBox="0 0 24 24">
<title>bug</title>
<path d="M24 13.5v-1.5h-4.53c-0.137-1.704-0.745-3.258-1.68-4.506h3.796l1.642-6.568-1.455-0.364-1.358 5.432h-4.094c-0.021-0.016-0.042-0.032-0.063-0.048 0.157-0.457 0.243-0.947 0.243-1.458 0-2.479-2.015-4.488-4.5-4.488s-4.5 2.009-4.5 4.488c0 0.51 0.086 1.001 0.243 1.458-0.021 0.016-0.042 0.032-0.063 0.048h-4.094l-1.358-5.432-1.455 0.364 1.642 6.568h3.796c-0.935 1.247-1.542 2.802-1.68 4.506h-4.53v1.5h4.532c0.089 1.070 0.363 2.082 0.788 2.994h-2.906l-1.642 6.568 1.455 0.364 1.358-5.432h2.633c1.376 1.829 3.455 2.994 5.781 2.994s4.405-1.165 5.781-2.994h2.633l1.358 5.432 1.455-0.364-1.642-6.568h-2.906c0.425-0.913 0.699-1.924 0.788-2.994h4.532z"></path>
</svg>

<svg xmlns="http://www.w3.org/2000/svg" width="24" height="24"><path d="M24 13.5V12h-4.53a8.665 8.665 0 0 0-1.68-4.506h3.796L23.228.926 21.773.562l-1.358 5.432h-4.094l-.063-.048A4.494 4.494 0 0 0 12.001 0a4.494 4.494 0 0 0-4.257 5.946l-.063.048H3.587L2.229.562.774.926l1.642 6.568h3.796A8.67 8.67 0 0 0 4.532 12H.002v1.5h4.532a8.816 8.816 0 0 0 .788 2.994H2.416L.774 23.062l1.455.364 1.358-5.432H6.22c1.376 1.829 3.455 2.994 5.781 2.994s4.405-1.165 5.781-2.994h2.633l1.358 5.432 1.455-.364-1.642-6.568H18.68a8.822 8.822 0 0 0 .788-2.994H24z"/></svg>
